X:1
T:Black is the Color of my True Love's Hai
M:4/4
L:1/8
K:G
 E4 G4| B6 AB| E E3- E2 DE| F4 D4| B,8| z E B6-| BE G B- B4| E2 G A- A4-|\
 A6c-e| e4- e3 d| A6 GA|c-B B4A-G| E8-| E6 z E| B6- BE| G6- GB| E2G-A A4-|\
 A8|
